packages/icons/raw/imported/GenericHeart.svg

<svg width="32" height="32" viewBox="0 0 32 32" fill="none" xmlns="http://www.w3.org/2000/svg">
<path d="M17.3308 8.90318L17.6845 9.25653L17.3308 8.90318ZM24.0984 15.6783L23.7446 15.325C23.7399 15.3297 23.7353 15.3345 23.7307 15.3394L24.0984 15.6783ZM16 24.4643L15.6324 24.8032C15.727 24.9059 15.8603 24.9643 16 24.9643C16.1397 24.9643 16.273 24.9059 16.3676 24.8032L16 24.4643ZM14.6692 8.90318L14.3155 9.25653L14.3155 9.25653L14.6692 8.90318ZM7.90161 8.90318L8.25536 9.25653L7.90161 8.90318ZM7.90161 15.6783L8.26926 15.3394C8.26473 15.3345 8.26009 15.3297 8.25536 15.325L7.90161 15.6783ZM16 10.2355L15.6463 10.5888C15.74 10.6827 15.8673 10.7355 16 10.7355C16.1327 10.7355 16.26 10.6827 16.3538 10.5888L16 10.2355ZM17.6845 9.25653C19.3581 7.58116 22.0711 7.58116 23.7446 9.25653L24.4521 8.54982C22.388 6.48339 19.0412 6.48339 16.977 8.54982L17.6845 9.25653ZM23.7446 9.25653C25.4185 10.9322 25.4185 13.6493 23.7446 15.325L24.4521 16.0317C26.516 13.9655 26.516 10.6159 24.4521 8.54982L23.7446 9.25653ZM23.7307 15.3394L15.6324 24.1254L16.3676 24.8032L24.466 16.0172L23.7307 15.3394ZM7.54786 8.54982C5.48405 10.6159 5.48405 13.9655 7.54786 16.0317L8.25536 15.325C6.58155 13.6493 6.58155 10.9322 8.25536 9.25653L7.54786 8.54982ZM7.53397 16.0172L15.6324 24.8032L16.3676 24.1254L8.26926 15.3394L7.53397 16.0172ZM16.977 8.54982L15.6463 9.88209L16.3538 10.5888L17.6845 9.25653L16.977 8.54982ZM15.023 8.54982C12.9588 6.4834 9.61199 6.48339 7.54786 8.54982L8.25536 9.25653C9.92887 7.58116 12.6419 7.58116 14.3155 9.25653L15.023 8.54982ZM16.3538 9.88209L15.023 8.54982L14.3155 9.25653L15.6463 10.5888L16.3538 9.88209Z" fill="black"/>
</svg>

<svg width="32" height="32" fill="none" xmlns="http://www.w3.org/2000/svg"><path d="m17.33 8.903.355.354-.354-.354Zm6.768 6.775-.353-.353a.633.633 0 0 0-.014.014l.367.34ZM16 24.464l-.368.34a.5.5 0 0 0 .736 0l-.368-.34Zm-1.33-15.56-.354.353.353-.354Zm-6.768 0 .353.353-.353-.354Zm0 6.774.367-.339a.472.472 0 0 0-.014-.014l-.353.353ZM16 10.235l-.354.354a.5.5 0 0 0 .708 0L16 10.235Zm1.684-.978a4.282 4.282 0 0 1 6.06 0l.708-.707a5.282 5.282 0 0 0-7.475 0l.707.707Zm6.06 0a4.294 4.294 0 0 1 0 6.068l.708.707a5.294 5.294 0 0 0 0-7.482l-.707.707Zm-.013 6.082-8.099 8.786.736.678 8.098-8.786-.735-.678ZM7.548 8.55a5.295 5.295 0 0 0 0 7.483l.707-.707a4.295 4.295 0 0 1 0-6.068l-.707-.707Zm-.014 7.468 8.098 8.786.736-.678-8.099-8.786-.735.678Zm9.443-7.467-1.33 1.332.707.707 1.33-1.332-.707-.707Zm-1.954 0a5.282 5.282 0 0 0-7.475 0l.707.707a4.282 4.282 0 0 1 6.06 0l.708-.707Zm1.33 1.332-1.33-1.332-.707.707 1.33 1.332.708-.707Z" fill="#000"/></svg>
